Numix-GalliumOS/16/mimetypes/text-x-csharp.svg

<?xml version="1.0" encoding="UTF-8" standalone="no"?>
<svg
   xmlns:dc="http://purl.org/dc/elements/1.1/"
   xmlns:cc="http://creativecommons.org/ns#"
   xmlns:rdf="http://www.w3.org/1999/02/22-rdf-syntax-ns#"
   xmlns:svg="http://www.w3.org/2000/svg"
   xmlns="http://www.w3.org/2000/svg"
   xmlns:sodipodi="http://sodipodi.sourceforge.net/DTD/sodipodi-0.dtd"
   xmlns:inkscape="http://www.inkscape.org/namespaces/inkscape"
   width="16"
   height="16"
   viewBox="0 0 16 16"
   id="svg2"
   version="1.1"
   inkscape:version="0.48.5 r10040"
   sodipodi:docname="text-x-csharp.svg">
  <metadata
     id="metadata20">
    <rdf:RDF>
      <cc:Work
         rdf:about="">
        <dc:format>image/svg+xml</dc:format>
        <dc:type
           rdf:resource="http://purl.org/dc/dcmitype/StillImage" />
      </cc:Work>
    </rdf:RDF>
  </metadata>
  <defs
     id="defs18" />
  <sodipodi:namedview
     pagecolor="#ffffff"
     bordercolor="#666666"
     borderopacity="1"
     objecttolerance="10"
     gridtolerance="10"
     guidetolerance="10"
     inkscape:pageopacity="0"
     inkscape:pageshadow="2"
     inkscape:window-width="1280"
     inkscape:window-height="970"
     id="namedview16"
     showgrid="true"
     inkscape:zoom="14.75"
     inkscape:cx="-1.9642579"
     inkscape:cy="15.17318"
     inkscape:window-x="0"
     inkscape:window-y="0"
     inkscape:window-maximized="1"
     inkscape:current-layer="svg2">
    <inkscape:grid
       type="xygrid"
       id="grid3008" />
  </sodipodi:namedview>
  <path
     style="fill:#2d2d2d;fill-opacity:1"
     d="M 2.667969,-4.464e-4 C 2.324219,-4.464e-4 2,0.3378116 2,0.6964463 L 2,15.303108 C 2,15.641365 2.34375,16 2.667969,16 l 10.664062,0 C 13.65625,16 14,15.641365 14,15.303108 L 14,3.9995534 10,-4.464e-4 z"
     id="path4-1"
     inkscape:connector-curvature="0"
     sodipodi:nodetypes="ssssssccs" />
  <path
     style="fill:#000000;fill-opacity:0.19599998"
     d="m 10.583223,3.3315844 0.0154,0.01953 0.04005,-0.01953 z m 0.02978,0.667969 3.387,3.664062 0,-3.664062 z"
     id="path6"
     inkscape:connector-curvature="0"
     sodipodi:nodetypes="cccccccc" />
  <path
     style="fill:#ffffff;fill-opacity:0.39200003"
     d="m 10,-4.464e-4 3.996396,3.9999998 -3.383784,0 C 10.313513,3.9995534 10,3.6824364 10,3.3833374 z"
     id="path8"
     inkscape:connector-curvature="0"
     sodipodi:nodetypes="ccssc" />
  <g
     style="fill:#dcdcdc"
     id="g10"
     transform="matrix(1.106628,0,0,1.106628,-0.8530243,-0.99526445)">
    <path
       d="M 3.667969,9.289062 C 3.667969,8.96875 3.71875,8.652344 3.816406,8.339844 3.917969,8.023438 4.0625,7.742188 4.25,7.496094 4.441406,7.25 4.675781,7.050781 4.949219,6.894531 5.226562,6.742188 5.539062,6.667969 5.890625,6.667969 c 0.417969,0 0.773437,0.105469 1.074219,0.316406 0.304687,0.214844 0.53125,0.488281 0.675781,0.832031 L 6.945312,8.355469 C 6.894531,8.207031 6.828125,8.082031 6.742188,7.984375 6.660156,7.882812 6.570312,7.800781 6.46875,7.742188 6.371094,7.679688 6.273438,7.640625 6.167969,7.613281 6.0625,7.585938 5.960938,7.570312 5.867188,7.570312 c -0.214844,0 -0.402344,0.050782 -0.5625,0.15625 -0.164063,0.101563 -0.296876,0.238282 -0.40625,0.40625 -0.105469,0.164063 -0.1875,0.351563 -0.242188,0.5625 -0.054688,0.207032 -0.078125,0.414063 -0.078125,0.625 0,0.230469 0.027344,0.453126 0.089844,0.671876 0.066406,0.210937 0.15625,0.402343 0.269531,0.5625 0.117188,0.164062 0.257812,0.292968 0.417969,0.394531 0.160156,0.09766 0.339843,0.148437 0.53125,0.148437 0.097656,0 0.203125,-0.01563 0.308593,-0.04687 0.101563,-0.02734 0.203126,-0.07422 0.300782,-0.140625 C 6.59375,10.847656 6.6875,10.765625 6.769531,10.667969 6.851562,10.5625 6.921875,10.441406 6.972656,10.296875 l 0.738282,0.480469 c -0.070313,0.199218 -0.171876,0.375 -0.304688,0.527344 -0.132812,0.148437 -0.285156,0.273437 -0.453125,0.375 C 6.78125,11.785156 6.605469,11.863281 6.417969,11.917969 6.226562,11.972656 6.042969,12 5.859375,12 5.535156,12 5.238281,11.921875 4.96875,11.761719 4.703125,11.605469 4.472656,11.398438 4.277344,11.148438 4.082031,10.890625 3.933594,10.601562 3.824219,10.28125 3.71875,9.957031 3.667969,9.625 3.667969,9.289062"
       id="path12"
       inkscape:connector-curvature="0" />
    <path
       d="m 12.332031,8.816406 -0.949219,0 -0.214843,1.011719 0.859375,0 0,0.742187 -1.015625,0 -0.300781,1.386719 -0.707032,0 0.304688,-1.386719 -0.785156,0 -0.292969,1.386719 -0.707031,0 0.300781,-1.386719 -0.734375,0 0,-0.742187 0.890625,0 0.21875,-1.011719 -0.800781,0 0,-0.699218 0.949218,0 0.308594,-1.421876 0.707031,0 -0.316406,1.421876 0.789063,0 0.300781,-1.421876 0.707031,0 -0.308594,1.421876 0.796875,0 0,0.699218 m -1.863281,1.011719 0.207031,-1.011719 -0.777343,0 -0.214844,1.011719 0.785156,0"
       id="path14"
       inkscape:connector-curvature="0" />
  </g>
</svg>

<svg xmlns="http://www.w3.org/2000/svg" viewBox="0 0 16 16">
 <path d="m 2.668 0 c -0.344 0 -0.668 0.338 -0.668 0.697 l 0 14.607 c 0 0.338 0.344 0.697 0.668 0.697 l 10.664 0 c 0.324 0 0.668 -0.359 0.668 -0.697 l 0 -11.304 -4 -4 z" style="fill:#2d2d2d;fill-opacity:1"/>
 <path d="m 10.583 3.332 0.015 0.02 0.04 -0.02 z m 0.03 0.668 3.387 3.664 0 -3.664 z" style="fill:#000;fill-opacity:0.196"/>
 <path d="m 10 0 3.996 4 -3.384 0 c -0.299 0 -0.613 -0.317 -0.613 -0.616 z" style="fill:#fff;fill-opacity:0.392"/>
 <g transform="matrix(1.106628,0,0,1.106628,-0.8530243,-0.99526445)" style="fill:#dcdcdc">
  <path d="m 3.668 9.289 c 0 -0.32 0.051 -0.637 0.148 -0.949 0.102 -0.316 0.246 -0.598 0.434 -0.844 0.191 -0.246 0.426 -0.445 0.699 -0.602 0.277 -0.152 0.59 -0.227 0.941 -0.227 c 0.418 0 0.773 0.105 1.074 0.316 0.305 0.215 0.531 0.488 0.676 0.832 l -0.695 0.539 c -0.051 -0.148 -0.117 -0.273 -0.203 -0.371 -0.082 -0.102 -0.172 -0.184 -0.273 -0.242 -0.098 -0.063 -0.195 -0.102 -0.301 -0.129 -0.105 -0.027 -0.207 -0.043 -0.301 -0.043 c -0.215 0 -0.402 0.051 -0.563 0.156 -0.164 0.102 -0.297 0.238 -0.406 0.406 -0.105 0.164 -0.188 0.352 -0.242 0.563 -0.055 0.207 -0.078 0.414 -0.078 0.625 0 0.23 0.027 0.453 0.09 0.672 0.066 0.211 0.156 0.402 0.27 0.563 0.117 0.164 0.258 0.293 0.418 0.395 0.16 0.098 0.34 0.148 0.531 0.148 0.098 0 0.203 -0.016 0.309 -0.047 0.102 -0.027 0.203 -0.074 0.301 -0.141 c 0.098 -0.063 0.191 -0.145 0.273 -0.242 0.082 -0.105 0.152 -0.227 0.203 -0.371 l 0.738 0.48 c -0.07 0.199 -0.172 0.375 -0.305 0.527 -0.133 0.148 -0.285 0.273 -0.453 0.375 c -0.172 0.105 -0.348 0.184 -0.535 0.238 -0.191 0.055 -0.375 0.082 -0.559 0.082 -0.324 0 -0.621 -0.078 -0.891 -0.238 -0.266 -0.156 -0.496 -0.363 -0.691 -0.613 -0.195 -0.258 -0.344 -0.547 -0.453 -0.867 -0.105 -0.324 -0.156 -0.656 -0.156 -0.992"/>
  <path d="m 12.332 8.816 -0.949 0 -0.215 1.012 0.859 0 0 0.742 -1.016 0 -0.301 1.387 -0.707 0 0.305 -1.387 -0.785 0 -0.293 1.387 -0.707 0 0.301 -1.387 -0.734 0 0 -0.742 0.891 0 0.219 -1.012 -0.801 0 0 -0.699 0.949 0 0.309 -1.422 0.707 0 -0.316 1.422 0.789 0 0.301 -1.422 0.707 0 -0.309 1.422 0.797 0 0 0.699 m -1.863 1.012 0.207 -1.012 -0.777 0 -0.215 1.012 0.785 0"/>
 </g>
</svg>
